X:2862
T:Jinny crack corn
C:anon.
O:USA
R:Swing feeling
Z:Transcribed by Frank Nordberg - http://www.musicaviva.com
F:http://abc.musicaviva.com/tunes/usa/jinny-crack-corn.abc
%Posted at abcusers March 6th 2001 by Frank Nordberg
M:C|
L:1/4
Q:1/4=220
K:F
"F"C/F/FF>F|"C7"EGGz|"C7"C/G/GG>G|"F"FAAz|
w:Jinn-y crack corn, and I don't care, Jinn-y crack corn, and I don't care,
"F"F/A/AA>A|"Bb"Bd"Gm"dz|"C7"c>cBG|"F"F2z2|]
w:Jinn-y crack corn, and I don't care, Mast-er's gone a-way.
W:
W:Jinny crack corn, and I don't care,
W:  Master's gone away.
W:
W:Left hand up, and I don't care...
W:
W:Richt hand up, and I don't care...
W:
W:Both hands up, and I don't care...
W:
W:Left leg up, and I don't care...
W:
W:Right leg up, and I don't care...
W:
W:Both legs up, and I don't care...
W:
W:
W:  From Musica Viva - http://www.musicaviva.com
W:  the Internet center for free sheet music downloads.

